X:607
T: "Waldlust"
N: Z1287
O: Europa, Mitteleuropa, Deutschland, Sachsan(!)
R: Jaeger - Lied
M: 2/4
L: 1/16
K: A
A2ABc2c2 | B2B2A2E2 |
c2cde2e2 | d2d2c4 |
A2ABc2c2 | B2B2A2E2 |
c2cde2e2 | d2d2c4 |
e2e2f3e | d2d2e4 |
c2c2d4 | c2c2B4 |
c2c2d2d2 | efedc4

@@@ Tune index: 10365
